X: 1
T: Planxty George Brabazon
C: O'Carolan
R: reel, march
Z: 2020 John Chambers <jc:trillian.mit.edu>
S: https://www.facebook.com/groups/Fiddletuneoftheday/ 2020-7-20
S: https://www.facebook.com/groups/Fiddletuneoftheday/photos/
M: C
L: 1/8
K: G
(ge) |\
"G"d2G2 (cB)AG | d2G2 (cB)AG | "Am"e2A2 (AB)cd | e2A2 (AB)cd |\
"G"(ed)cB g2fe | "Em"(ed)cB "C"(cB)AG | "D"(BA)GE (DE)GA | "G"B2G2 G2 ||
(ga) |\
"G"b2(gb) "D"a2(fa) | "C"g2(eg) (ed)cB | "Am"e2A2 (AB)cd | e2A2 A2(ga) |\
"G"b2(gb) "D"a2(fa) | "C"g2(eg) (ed)cB | "D"(BA)GE (DE)GA | "G"B2G2 G2 |]
%%text The parts are sometimes repeated, but not always.
